icons/goreleaser.svg

<!--
  - The MIT License (MIT)
  -
  - Copyright (c) 2015-2024 Elior "Mallowigi" Boukhobza
  -
  - Permission is hereby granted, free of charge, to any person obtaining a copy
  - of this software and associated documentation files (the "Software"), to deal
  - in the Software without restriction, including without limitation the rights
  - to use, copy, modify, merge, publish, distribute, sublicense, and/or sell
  - copies of the Software, and to permit persons to whom the Software is
  - furnished to do so, subject to the following conditions:
  -
  - The above copyright notice and this permission notice shall be included in all
  - copies or substantial portions of the Software.
  -
  - THE SOFTWARE IS PROVIDED "AS IS", WITHOUT WARRANTY OF ANY KIND, EXPRESS OR
  - IMPLIED, INCLUDING BUT NOT LIMITED TO THE WARRANTIES OF MERCHANTABILITY,
  - FITNESS FOR A PARTICULAR PURPOSE AND NONINFRINGEMENT. IN NO EVENT SHALL THE
  - AUTHORS OR COPYRIGHT HOLDERS BE LIABLE FOR ANY CLAIM, DAMAGES OR OTHER
  - LIABILITY, WHETHER IN AN ACTION OF CONTRACT, TORT OR OTHERWISE, ARISING FROM,
  - OUT OF OR IN CONNECTION WITH THE SOFTWARE OR THE USE OR OTHER DEALINGS IN THE
  - SOFTWARE.
  -
  -->

<svg version="1.1" xmlns="http://www.w3.org/2000/svg" viewBox="0 0 391 512" width="16px" height="16px">
  <path fill="#4fd0fc" data-iconColor="GoReleaser"
        d="M288.7470093,197.0755615c-13.9434814,3.3101807-24.3894043,11.1757507-32.7796936,21.4636536c-1.5933533-11.1550598-4.6728668-20.6681061-11.2440033-26.6970978C268.1151428,183.7285309,279.1047974,184.3498688,288.7470093,197.0755615z M110.4417038,19.4794369c-29.7054443-2.9977951-59.0016747,6.9008293-80.2668915,27.407877C7.1200452,41.6563263-11.5821562,76.6078644,8.592926,92.4903717c-2.3159828,38.2689667,16.0028439,77.9688721,58.5169983,142.012619c13.9832458,21.0644989,35.3918686,52.6760864,56.8769302,73.1389771c15.1034622,9.7216187,27.7788925,18.062439,46.5028458,13.5341492c-0.2284088,20.9067993,7.0719452,37.9880066,19.2238007,33.0889282c10.4831543-3.793396-0.375351-20.5623169-3.8859558-37.7423706c58.6972809-51.4966736,61.6071472-84.4223938,60.8614044-108.1401978c-6.7269287-20.6084442-18.6419373-13.8681793-45.1708679-70.846405c0,0,31.4812317-27.9446793,17.0874329-41.0494156c-13.7934265-12.558197-28.5476227,12.6954346-28.5476227,12.6954346l-7.4647217-21.2303467c13.3878021-20.1328812-0.1022797-45.4777946-22.1087646-47.4877396l-2.4187012-2.2824554C173.7019348,1.4927114,121.4790115-16.2896538,110.4417038,19.4794369z M108.6195984,379.372406l35.689682-52.344574c-35.3075562-13.1362915-65.4814911,0.2552795-89.4630432,45.6461487c-1.9892921,5.4683838,3.5938683,10.0184326,9.4029579,7.3157654C77.0976868,374.012146,94.1090393,372.8739929,108.6195984,379.372406z M178.409668,457.201355c4.6713104,14.374939,2.2913971,31.5908508-6.3769073,45.1953735c-3.2022705,7.2219849,2.9295807,11.6505127,9.390625,8.6541748c50.8010406-20.394043,61.100296-53.5534363,53.4198456-83.2708435L178.409668,457.201355z M250.7283325,233.987381c-4.4031677,21.4586029-18.1701508,48.5686798-58.4420776,84.632431c7.2071381,22.463623,13.1917114,35.120697-0.3869476,41.0811462c-14.1599579,6.0187073-25.3992157-7.3580627-27.081543-31.7485657c-4.9237976,0.507843-9.3655853,0.2398682-13.5247803-0.5704956c-16.5819855,25.0486755-31.1487656,43.6669922-42.2865219,63.5463867c-31.8130188,11.8599243-41.0789185,31.3455811-37.3791046,91.3231201c50.2604141,13.7409668,75.4691696,5.1563416,97.5221329-27.1525269c148.7526398-70.8969421,240.4801788-142.3504944,218.5552826-254.4302979C351.7185059,190.1097717,275.3298035,187.2880249,250.7283325,233.987381z M170.3816071,367.8208923c19.5638275-16.3559875,49.664566,9.8681335,25.4170685,29.0673828c-13.0941925,11.6316833-28.0818329,23.6951904-44.7774811,36.0611572c3.7444305,4.7559814,7.4479065,9.8852234,11.3353882,15.7330322c-21.1208191,35.0196533-44.6774368,35.1560059-82.7631149,26.3670044c-4.3945007-56.3961182,10.2538376-65.917511,37.3532639-76.9037781l11.7985077,10.7445984C142.2025146,394.444458,156.068634,380.7590637,170.3816071,367.8208923z M304.3544617,288.4403076c-19.8273926-11.4307251-19.8273926-40.1627045,0-51.5934296c19.8274231-11.4307251,44.7462463,2.935257,44.7462463,25.7967072S324.1818848,299.8710327,304.3544617,288.4403076z M75.9044571,132.4116058c-18.5989761-11.2044144-19.4020576-41.4525757-0.8030853-52.6569901s42.7769928,4.9621735,42.7769928,27.3710098S94.5034256,143.6160126,75.9044571,132.4116058z M146.8465729,92.1777039c-16.7196655-10.0722809-16.5700836-35.3621597,0.3043823-45.1728973c13.4118195-7.7975731,37.4283447,2.2973328,37.4283447,22.4419022S163.5662537,102.2499924,146.8465729,92.1777039z M141.730896,119.5585022c1.895401,2.7795563,4.2369537,6.5758438,5.9616089,10.5540619c1.5064087,9.0153809-6.0514679,11.9575653-13.7028656-2.6483002C136.7581482,125.1028519,138.5587158,122.5282135,141.730896,119.5585022z M153.5193024,115.1848373c9.2118073,11.9062424,3.6159515,21.11483-4.7204895,13.7729568c-1.7456512-3.9027634-4.0097809-7.5576935-5.8602295-10.2584839C147.344162,116.2957535,150.5540009,116.1943893,153.5193024,115.1848373z M133.0620422,126.3296051c-10.7143402,3.6253815-10.1522675-4.3971329-3.569809-12.6506424c4.3186188,3.0584564,15.4671021-2.0453949,13.9960327-8.8311996c12.3291016-4.3256683,18.9719391,6.2006836,8.7811279,9.2145767C139.108078,116.771492,140.6410522,119.428627,133.0620422,126.3296051z M91.1719742,112.1776428c0-5.0889893-5.5469666-8.2868805-9.9605713-5.7423859c-4.4136124,2.5444946-4.4136047,8.9402695,0,11.4847641C85.6250153,120.4645157,91.1719742,117.2666321,91.1719742,112.1776428z M164.2091217,72.9337997c0-5.0889893-5.5469666-8.2868729-9.9605713-5.7423782s-4.4136047,8.9402618,0,11.4847565S164.2091217,78.022789,164.2091217,72.9337997z M175.1721344,373.3587952c-25.0783081,22.6696167-47.8992615,46.8808594-68.9999847,72.2672424c-2.6889267,3.9790039,1.2494125,9.873291,6.2234192,5.6138611c31.3657837-21.1427307,57.5522766-41.1534119,78.8379517-60.0931702C207.2562103,380.1135254,188.5924835,362.7530212,175.1721344,373.3587952z"/>
</svg>

<svg xmlns="http://www.w3.org/2000/svg" viewBox="0 0 391 512"><path fill="#4fd0fc" d="M288.747 197.076c-13.943 3.31-24.39 11.175-32.78 21.463-1.593-11.155-4.673-20.668-11.244-26.697 23.392-8.113 34.382-7.492 44.024 5.234M110.442 19.479C80.736 16.482 51.44 26.38 30.175 46.887 7.12 41.657-11.582 76.607 8.593 92.49c-2.316 38.27 16.003 77.97 58.517 142.013 13.983 21.064 35.392 52.676 56.877 73.139 15.103 9.722 27.779 18.062 46.503 13.534-.229 20.907 7.072 37.988 19.224 33.089 10.483-3.793-.376-20.562-3.886-37.742 58.697-51.497 61.607-84.423 60.86-108.14-6.726-20.609-18.641-13.869-45.17-70.847 0 0 31.481-27.945 17.088-41.05-13.794-12.558-28.548 12.696-28.548 12.696l-7.465-21.23c13.388-20.133-.102-45.478-22.109-47.488l-2.418-2.282c15.636-36.69-36.587-54.472-47.624-18.703m-1.822 359.893 35.69-52.344c-35.308-13.136-65.482.255-89.464 45.646-1.99 5.468 3.594 10.018 9.403 7.316 12.849-5.978 29.86-7.116 44.37-.618m69.79 77.83c4.671 14.374 2.291 31.59-6.377 45.195-3.203 7.222 2.93 11.65 9.39 8.654 50.801-20.394 61.1-53.554 53.42-83.27zm72.318-223.215c-4.403 21.459-18.17 48.57-58.442 84.633 7.207 22.463 13.192 35.12-.387 41.081-14.16 6.019-25.399-7.358-27.081-31.749-4.924.508-9.366.24-13.525-.57-16.582 25.049-31.149 43.667-42.287 63.546-31.813 11.86-41.078 31.346-37.379 91.323 50.26 13.741 75.47 5.157 97.522-27.152 148.753-70.897 240.48-142.35 218.556-254.43-35.986-10.56-112.375-13.381-136.977 33.318m-80.346 133.834c19.563-16.356 49.664 9.868 25.417 29.067-13.095 11.632-28.082 23.695-44.778 36.061 3.745 4.756 7.448 9.886 11.336 15.733-21.121 35.02-44.678 35.156-82.764 26.367-4.394-56.396 10.254-65.917 37.354-76.903l11.798 10.744c13.458-14.446 27.324-28.13 41.637-41.07m133.972-79.38c-19.827-11.431-19.827-40.163 0-51.594 19.828-11.43 44.747 2.935 44.747 25.797s-24.92 37.227-44.747 25.796M75.904 132.41c-18.599-11.204-19.402-41.452-.803-52.656s42.777 4.962 42.777 27.37-23.375 36.491-41.974 25.287m70.943-40.233c-16.72-10.073-16.57-35.362.304-45.173 13.412-7.798 37.428 2.297 37.428 22.442s-21.013 32.803-37.732 22.73m-5.116 27.38c1.895 2.78 4.237 6.576 5.962 10.555 1.506 9.015-6.052 11.957-13.703-2.649 2.768-2.361 4.569-4.936 7.74-7.905m11.788-4.373c9.212 11.906 3.616 21.115-4.72 13.773-1.746-3.903-4.01-7.558-5.86-10.259 4.405-2.403 7.615-2.505 10.58-3.514m-20.457 11.145c-10.714 3.625-10.152-4.398-3.57-12.651 4.319 3.058 15.467-2.045 13.996-8.831 12.33-4.326 18.972 6.2 8.781 9.214-13.16 2.71-11.628 5.367-19.207 12.268m-41.89-14.152c0-5.09-5.547-8.287-9.96-5.743s-4.414 8.94 0 11.485 9.96-.653 9.96-5.742m73.037-39.244c0-5.09-5.547-8.287-9.96-5.743s-4.414 8.94 0 11.485 9.96-.653 9.96-5.742m10.963 300.425c-25.078 22.67-47.9 46.88-69 72.267-2.689 3.979 1.25 9.873 6.224 5.614 31.365-21.143 57.552-41.154 78.838-60.093 16.022-11.033-2.642-28.394-16.062-17.788" data-iconColor="GoReleaser"/></svg>
